resources/svg/bus-2-fill.svg

<svg fill="currentColor" viewBox="0 0 24 24" xmlns="http://www.w3.org/2000/svg"><path d="M17 20H7V21C7 21.5523 6.55228 22 6 22H4C3.44772 22 3 21.5523 3 21V12H2V8H3V5C3 3.89543 3.89543 3 5 3H19C20.1046 3 21 3.89543 21 5V8H22V12H21V21C21 21.5523 20.5523 22 20 22H18C17.4477 22 17 21.5523 17 21V20ZM5 5V12H19V5H5ZM7.5 18C8.32843 18 9 17.3284 9 16.5C9 15.6716 8.32843 15 7.5 15C6.67157 15 6 15.6716 6 16.5C6 17.3284 6.67157 18 7.5 18ZM16.5 18C17.3284 18 18 17.3284 18 16.5C18 15.6716 17.3284 15 16.5 15C15.6716 15 15 15.6716 15 16.5C15 17.3284 15.6716 18 16.5 18Z"/></svg>

<svg xmlns="http://www.w3.org/2000/svg" viewBox="0 0 24 24" fill="currentColor">
    <g>
        <path fill="none" d="M0 0h24v24H0z"/>
        <path d="M17 20H7v1a1 1 0 0 1-1 1H4a1 1 0 0 1-1-1v-9H2V8h1V5a2 2 0 0 1 2-2h14a2 2 0 0 1 2 2v3h1v4h-1v9a1 1 0 0 1-1 1h-2a1 1 0 0 1-1-1v-1zM5 5v7h14V5H5zm2.5 13a1.5 1.5 0 1 0 0-3 1.5 1.5 0 0 0 0 3zm9 0a1.5 1.5 0 1 0 0-3 1.5 1.5 0 0 0 0 3z"/>
    </g>
</svg>
